dist/svg/chart-line.svg

<!-- Generated by Trend Micro Style Portal -->
<svg version="1.1" xmlns="http://www.w3.org/2000/svg" width="16" height="16" viewBox="0 0 16 16">
  <title>chart-line</title>
  <path fill="rgb(34,34,34)" d="M16 14v1h-16v-14h1v13zM3.404 11.377l3.336-3.285 2.993 2.993 5.681-5.639-1.414-1.414-4.246 4.246-3.016-3.016-1.414 1.414 0.003 0.003-3.325 3.273z"></path>
</svg>

<svg width="16" height="16" viewBox="0 0 16 16" fill="rgb(34, 34, 34)" xmlns="http://www.w3.org/2000/svg"><title>chart-line</title><path d="M16 14V15H0V1H1V14H16ZM3.404 11.377L6.74 8.092L9.733 11.085L15.414 5.446L14 4.032L9.754 8.278L6.738 5.262L5.324 6.676L5.327 6.679L2.002 9.952L3.404 11.377Z" fill="rgb(34, 34, 34)" fill-opacity="1.00"/></svg>
